svg/girl_0510y_positive.svg

<svg width="48" height="48" viewBox="0 0 48 48" fill="none" xmlns="http://www.w3.org/2000/svg">
<path fill-rule="evenodd" clip-rule="evenodd" d="M12.6369 4V4.002C8.40694 3.9143 6.88766 7.82265 8.55264 18.6698C9.52943 25.9427 2.78231 20.3718 4.76949 17.1478C2.97731 19.6948 4.36819 23.5978 7.92375 23.6018C11.8319 23.8737 9.20933 12.1699 11.8669 8.31395C13.8859 4.53969 18.0428 8.74544 18.9608 11.5899C15.9528 13.6569 14.1099 17.0888 14.1049 20.8028C14.1049 26.9867 19.1188 31.9996 25.3027 31.9996C31.4867 31.9996 36.4996 26.9867 36.4996 20.8028C36.4956 14.9879 32.0416 10.1429 26.2477 9.65193C25.9707 9.62583 25.6937 9.61343 25.4157 9.60933C25.3777 9.60883 25.3407 9.60153 25.3027 9.60153C25.2977 9.60153 25.2877 9.60543 25.2827 9.60543C23.3698 9.75773 21.8508 9.91423 20.2708 10.8069C20.2728 10.8069 20.2748 10.8079 20.2768 10.8089C20.1258 10.8849 19.9808 10.9679 19.8338 11.0509C18.7268 8.00365 17.1678 4.93909 14.6149 4.2734C13.9019 4.1064 13.2409 4.0125 12.6369 4ZM26.7067 14.4999C27.2187 14.5449 27.6837 15.8809 28.1887 17.3028C30.2977 19.1878 32.9906 18.8398 35.2266 18.7318C35.3716 19.4128 35.4466 20.1068 35.4506 20.8028C35.4516 26.4077 30.9077 30.9517 25.3027 30.9507C19.6978 30.9507 15.1559 26.4067 15.1559 20.8028C15.1589 19.5048 15.4099 18.2198 15.8958 17.0178C20.8008 19.3698 22.1968 17.7048 25.3907 17.3028C25.8827 15.2099 26.3087 14.4649 26.7067 14.4999ZM21.5408 19.5348C20.9618 19.5358 20.4928 20.0048 20.4918 20.5838C20.4918 21.1638 20.9608 21.6338 21.5408 21.6348C22.1218 21.6348 22.5918 21.1648 22.5918 20.5838C22.5908 20.0038 22.1208 19.5348 21.5408 19.5348ZM29.1947 19.5348C28.6157 19.5358 28.1467 20.0048 28.1457 20.5838C28.1457 21.1638 28.6157 21.6338 29.1947 21.6348C29.7757 21.6348 30.2467 21.1648 30.2457 20.5838C30.2457 20.0038 29.7747 19.5348 29.1947 19.5348ZM21.9688 25.1817C21.7958 25.1967 21.6388 25.3667 21.6618 25.6427C21.8038 27.0267 23.4178 28.0977 25.3607 28.0997C27.3057 28.0987 28.9197 27.0277 29.0617 25.6427C28.2427 26.7997 26.9617 27.5567 25.3607 27.5897C23.8117 27.5887 22.5188 26.7437 22.3788 25.6427C22.3318 25.3037 22.1418 25.1657 21.9688 25.1817ZM4 33.9996V43.9995H43.9995V33.9996H4ZM7.70305 35.3296C8.47814 35.3296 9.07203 35.5856 9.48233 36.0976C9.89272 36.6056 10.1019 37.3366 10.1109 38.2906V39.5996C10.1109 40.5825 9.90892 41.3355 9.50193 41.8565C9.09483 42.3785 8.49774 42.6385 7.71285 42.6385C6.93776 42.6385 6.34587 42.3815 5.93547 41.8705C5.52518 41.3595 5.31448 40.6275 5.30468 39.6736V38.3626C5.30468 37.3696 5.50958 36.6156 5.91987 36.1016C6.33347 35.5866 6.92796 35.3296 7.70305 35.3296ZM28.8278 35.3296C29.6028 35.3296 30.1948 35.5856 30.6048 36.0976C31.0158 36.6056 31.2268 37.3366 31.2358 38.2906V39.5996C31.2358 40.5825 31.0318 41.3355 30.6248 41.8565C30.2178 42.3785 29.6228 42.6385 28.8378 42.6385C28.0628 42.6385 27.4688 42.3815 27.0588 41.8705C26.6478 41.3595 26.4378 40.6275 26.4278 39.6736V38.3626C26.4278 37.3696 26.6348 36.6156 27.0448 36.1016C27.4588 35.5866 28.0528 35.3296 28.8278 35.3296ZM23.9798 35.4176H24.1328V42.5405H22.7209V37.0996L21.0349 37.6206V36.4726L23.9798 35.4176ZM11.689 35.4276H15.676V36.6046H12.848L12.672 38.1346C13.007 37.9556 13.364 37.8646 13.742 37.8646C14.42 37.8646 14.95 38.0756 15.334 38.4956C15.718 38.9156 15.9099 39.5036 15.9099 40.2595C15.9099 40.7185 15.8129 41.1305 15.617 41.4955C15.425 41.8575 15.149 42.1375 14.787 42.3395C14.426 42.5385 14 42.6385 13.508 42.6385C13.078 42.6385 12.679 42.5515 12.311 42.3785C11.943 42.2025 11.65 41.9575 11.436 41.6425C11.224 41.3265 11.113 40.9655 11.1 40.5615H12.496C12.525 40.8585 12.629 41.0895 12.805 41.2555C12.984 41.4185 13.215 41.4995 13.502 41.4995C13.821 41.4995 14.068 41.3855 14.24 41.1575C14.413 40.9265 14.5 40.6015 14.5 40.1815C14.5 39.7776 14.4 39.4686 14.201 39.2536C14.003 39.0386 13.72 38.9296 13.355 38.9296C13.02 38.9296 12.749 39.0186 12.541 39.1946L12.404 39.3216L11.279 39.0426L11.689 35.4276ZM31.7188 35.4276H33.3257L34.7967 38.6326L36.2767 35.4276H37.8787L35.5447 39.9605V42.5405H34.0547V39.9605L31.7188 35.4276ZM7.70305 36.4726C7.37086 36.4726 7.12636 36.6016 6.96676 36.8586C6.81046 37.1126 6.72656 37.5126 6.71676 38.0566V39.7846C6.71676 40.3645 6.79476 40.7965 6.95116 41.0795C7.11076 41.3595 7.36436 41.4995 7.71285 41.4995C8.05805 41.4995 8.30784 41.3635 8.46084 41.0935C8.61394 40.8225 8.69464 40.4095 8.70114 39.8536V38.1636C8.70114 37.5746 8.61984 37.1456 8.45694 36.8786C8.29734 36.6086 8.04505 36.4726 7.70305 36.4726ZM28.8278 36.4726C28.4958 36.4726 28.2488 36.6016 28.0898 36.8586C27.9338 37.1126 27.8498 37.5126 27.8398 38.0566V39.7846C27.8398 40.3645 27.9178 40.7965 28.0738 41.0795C28.2338 41.3595 28.4888 41.4995 28.8378 41.4995C29.1828 41.4995 29.4308 41.3635 29.5838 41.0935C29.7368 40.8225 29.8178 40.4095 29.8238 39.8536V38.1636C29.8238 37.5746 29.7428 37.1456 29.5798 36.8786C29.4198 36.6086 29.1698 36.4726 28.8278 36.4726ZM40.1796 37.1576C40.8506 37.1576 41.3866 37.3146 41.7866 37.6306C42.1906 37.9466 42.3926 38.3566 42.3926 38.8606H40.9816C40.9816 38.6586 40.9146 38.4936 40.7846 38.3626C40.6546 38.2296 40.4526 38.1636 40.1756 38.1636C39.9376 38.1636 39.7526 38.2166 39.6227 38.3236C39.4927 38.4316 39.4277 38.5676 39.4277 38.7336C39.4277 38.8906 39.5017 39.0186 39.6477 39.1166C39.7976 39.2116 40.0486 39.2936 40.3996 39.3646C40.7516 39.4336 41.0476 39.5116 41.2886 39.5996C42.0346 39.8725 42.4076 40.3465 42.4076 41.0205C42.4076 41.5025 42.2006 41.8935 41.7866 42.1925C41.3726 42.4895 40.8396 42.6385 40.1856 42.6385C39.7426 42.6385 39.3487 42.5605 39.0037 42.4035C38.6617 42.2445 38.3927 42.0265 38.1967 41.7535C38.0017 41.4765 37.9037 41.1785 37.9037 40.8585H39.2417C39.2547 41.1095 39.3487 41.3035 39.5207 41.4375C39.6936 41.5705 39.9246 41.6365 40.2146 41.6365C40.4846 41.6365 40.6866 41.5865 40.8236 41.4855C40.9636 41.3815 41.0346 41.2455 41.0346 41.0795C41.0346 40.9065 40.9476 40.7715 40.7746 40.6735C40.6056 40.5725 40.3326 40.4835 39.9546 40.4055C38.6977 40.1415 38.0697 39.6066 38.0697 38.8026C38.0697 38.3336 38.2627 37.9436 38.6497 37.6306C39.0407 37.3146 39.5507 37.1576 40.1796 37.1576ZM16.8689 38.9256H19.6189V40.0635H16.8689V38.9256Z" fill="#333333"/>
</svg>

<?xml version="1.0" encoding="UTF-8" standalone="no"?>
<!-- Created with Inkscape (http://www.inkscape.org/) -->
<svg id="svg8" xmlns:rdf="http://www.w3.org/1999/02/22-rdf-syntax-ns#" xmlns="http://www.w3.org/2000/svg" xmlns:osb="http://www.openswatchbook.org/uri/2009/osb" height="48" width="48" version="1.1" xmlns:cc="http://creativecommons.org/ns#" viewBox="0 0 12.7 12.7" xmlns:dc="http://purl.org/dc/elements/1.1/">
 <title id="title4753">UIO-icon</title>
 <metadata id="metadata5">
  <rdf:RDF>
   <cc:Work rdf:about="">
    <dc:format>image/svg+xml</dc:format>
    <dc:type rdf:resource="http://purl.org/dc/dcmitype/StillImage"/>
    <dc:title>UIO-icon</dc:title>
    <dc:creator>
     <cc:Agent>
      <dc:title>Joaquín Urbano</dc:title>
     </cc:Agent>
    </dc:creator>
    <dc:rights>
     <cc:Agent>
      <dc:title>GPL</dc:title>
     </cc:Agent>
    </dc:rights>
   </cc:Work>
  </rdf:RDF>
 </metadata>
 <g id="layer1" transform="translate(0,-284.3)">
  <path id="rect4852" d="m12.637 4v0.002c-4.23-0.0877-5.7493 3.8207-4.0843 14.668 0.9768 7.273-5.7704 1.702-3.7832-1.522-1.7922 2.547-0.4013 6.45 3.1543 6.454 3.9082 0.272 1.2856-11.432 3.9432-15.288 2.019-3.7743 6.176 0.4315 7.094 3.276-3.008 2.067-4.851 5.499-4.856 9.213 0 6.184 5.014 11.197 11.198 11.197s11.197-5.013 11.197-11.197c-0.004-5.815-4.458-10.66-10.252-11.151-0.277-0.0261-0.554-0.0385-0.832-0.0426-0.038-0.0005-0.075-0.0078-0.113-0.0078-0.005 0-0.015 0.0039-0.02 0.0039-1.913 0.1523-3.432 0.3088-5.012 1.2015 0.002 0 0.004 0.001 0.006 0.002-0.151 0.076-0.296 0.159-0.443 0.242-1.107-3.0473-2.666-6.1119-5.219-6.7776-0.713-0.167-1.374-0.2609-1.978-0.2734zm14.07 10.5c0.512 0.045 0.977 1.381 1.482 2.803 2.109 1.885 4.802 1.537 7.038 1.429 0.145 0.681 0.22 1.375 0.224 2.071 0.001 5.605-4.543 10.149-10.148 10.148-5.605 0-10.147-4.544-10.147-10.148 0.003-1.298 0.254-2.583 0.74-3.785 4.905 2.352 6.301 0.687 9.495 0.285 0.492-2.093 0.918-2.838 1.316-2.803zm-5.166 5.035c-0.579 0.001-1.048 0.47-1.049 1.049 0 0.58 0.469 1.05 1.049 1.051 0.581 0 1.051-0.47 1.051-1.051-0.001-0.58-0.471-1.049-1.051-1.049zm7.654 0c-0.579 0.001-1.048 0.47-1.049 1.049 0 0.58 0.47 1.05 1.049 1.051 0.581 0 1.052-0.47 1.051-1.051 0-0.58-0.471-1.049-1.051-1.049zm-7.226 5.647c-0.173 0.015-0.33 0.185-0.307 0.461 0.142 1.384 1.756 2.455 3.699 2.457 1.945-0.001 3.559-1.072 3.701-2.457-0.819 1.157-2.1 1.914-3.701 1.947-1.549-0.001-2.842-0.846-2.982-1.947-0.047-0.339-0.237-0.477-0.41-0.461zm-17.969 8.818v10h40v-10h-40zm3.7031 1.33c0.7751 0 1.369 0.256 1.7793 0.768 0.4104 0.508 0.6196 1.239 0.6286 2.193v1.309c0 0.983-0.202 1.736-0.609 2.257-0.4071 0.522-1.0042 0.782-1.7891 0.782-0.7751 0-1.367-0.257-1.7774-0.768-0.4103-0.511-0.621-1.243-0.6308-2.197v-1.311c0-0.993 0.2049-1.747 0.6152-2.261 0.4136-0.515 1.0081-0.772 1.7832-0.772zm21.125 0c0.775 0 1.367 0.256 1.777 0.768 0.411 0.508 0.622 1.239 0.631 2.193v1.309c0 0.983-0.204 1.736-0.611 2.257-0.407 0.522-1.002 0.782-1.787 0.782-0.775 0-1.369-0.257-1.779-0.768-0.411-0.511-0.621-1.243-0.631-2.197v-1.311c0-0.993 0.207-1.747 0.617-2.261 0.414-0.515 1.008-0.772 1.783-0.772zm-4.848 0.088h0.153v7.123h-1.412v-5.441l-1.686 0.521v-1.148l2.945-1.055zm-12.291 0.01h3.987v1.177h-2.828l-0.176 1.53c0.335-0.179 0.692-0.27 1.07-0.27 0.678 0 1.208 0.211 1.592 0.631s0.576 1.008 0.576 1.764c0 0.459-0.097 0.871-0.293 1.236-0.192 0.362-0.468 0.642-0.83 0.844-0.361 0.199-0.787 0.299-1.279 0.299-0.43 0-0.829-0.087-1.197-0.26-0.368-0.176-0.661-0.421-0.875-0.736-0.212-0.316-0.323-0.677-0.336-1.081h1.396c0.029 0.297 0.133 0.528 0.309 0.694 0.179 0.163 0.41 0.244 0.697 0.244 0.319 0 0.566-0.114 0.738-0.342 0.173-0.231 0.26-0.556 0.26-0.976 0-0.404-0.1-0.713-0.299-0.928-0.198-0.215-0.481-0.324-0.846-0.324-0.335 0-0.606 0.089-0.814 0.265l-0.137 0.127-1.125-0.279 0.41-3.615zm20.03 0h1.607l1.471 3.205 1.48-3.205h1.602l-2.334 4.533v2.58h-1.49v-2.58l-2.336-4.533zm-24.016 1.045c-0.3322 0-0.5767 0.129-0.7363 0.386-0.1563 0.254-0.2402 0.654-0.25 1.198v1.728c0 0.58 0.078 1.012 0.2344 1.295 0.1596 0.28 0.4132 0.42 0.7617 0.42 0.3452 0 0.595-0.136 0.748-0.406 0.1531-0.271 0.2338-0.684 0.2403-1.24v-1.69c0-0.589-0.0813-1.018-0.2442-1.285-0.1596-0.27-0.4119-0.406-0.7539-0.406zm21.125 0c-0.332 0-0.579 0.129-0.738 0.386-0.156 0.254-0.24 0.654-0.25 1.198v1.728c0 0.58 0.078 1.012 0.234 1.295 0.16 0.28 0.415 0.42 0.764 0.42 0.345 0 0.593-0.136 0.746-0.406 0.153-0.271 0.234-0.684 0.24-1.24v-1.69c0-0.589-0.081-1.018-0.244-1.285-0.16-0.27-0.41-0.406-0.752-0.406zm11.352 0.685c0.671 0 1.207 0.157 1.607 0.473 0.404 0.316 0.606 0.726 0.606 1.23h-1.411c0-0.202-0.067-0.367-0.197-0.498-0.13-0.133-0.332-0.199-0.609-0.199-0.238 0-0.423 0.053-0.553 0.16-0.13 0.108-0.195 0.244-0.195 0.41 0 0.157 0.074 0.285 0.22 0.383 0.15 0.095 0.401 0.177 0.752 0.248 0.352 0.069 0.648 0.147 0.889 0.235 0.746 0.273 1.119 0.747 1.119 1.421 0 0.482-0.207 0.873-0.621 1.172-0.414 0.297-0.947 0.446-1.601 0.446-0.443 0-0.837-0.078-1.182-0.235-0.342-0.159-0.611-0.377-0.807-0.65-0.195-0.277-0.293-0.575-0.293-0.895h1.338c0.013 0.251 0.107 0.445 0.279 0.579 0.173 0.133 0.404 0.199 0.694 0.199 0.27 0 0.472-0.05 0.609-0.151 0.14-0.104 0.211-0.24 0.211-0.406 0-0.173-0.087-0.308-0.26-0.406-0.169-0.101-0.442-0.19-0.82-0.268-1.257-0.264-1.885-0.799-1.885-1.603 0-0.469 0.193-0.859 0.58-1.172 0.391-0.316 0.901-0.473 1.53-0.473zm-23.311 1.768h2.75v1.138h-2.75v-1.138z" fill-rule="evenodd" transform="matrix(.26458 0 0 .26458 0 284.3)" fill="#333"/>
 </g>
</svg>
